svgs/solid/nfc.svg

<svg xmlns="http://www.w3.org/2000/svg" viewBox="0 0 448 512"><!--! Font Awesome Pro 6.6.0 by @fontawesome - https://fontawesome.com License - https://fontawesome.com/license (Commercial License) Copyright 2024 Fonticons, Inc. --><path d="M0 96C0 60.7 28.7 32 64 32l320 0c35.3 0 64 28.7 64 64l0 320c0 35.3-28.7 64-64 64L64 480c-35.3 0-64-28.7-64-64L0 96zm64 48l0 224c0 26.5 21.5 48 48 48l224 0c26.5 0 48-21.5 48-48l0-224c0-26.5-21.5-48-48-48l-80 0c-26.5 0-48 21.5-48 48l0 66.7c-18.6 6.6-32 24.4-32 45.3c0 26.5 21.5 48 48 48s48-21.5 48-48c0-20.9-13.4-38.7-32-45.3l0-66.7c0-8.8 7.2-16 16-16l80 0c8.8 0 16 7.2 16 16l0 224c0 8.8-7.2 16-16 16l-224 0c-8.8 0-16-7.2-16-16l0-224c0-8.8 7.2-16 16-16l32 0c8.8 0 16-7.2 16-16s-7.2-16-16-16l-32 0c-26.5 0-48 21.5-48 48z"/></svg>

<svg xmlns="http://www.w3.org/2000/svg" viewBox="0 0 448 512"><!--! Font Awesome Pro 6.4.0 by @fontawesome - https://fontawesome.com License - https://fontawesome.com/license (Commercial License) Copyright 2023 Fonticons, Inc. --><path d="M0 96C0 60.7 28.7 32 64 32H384c35.3 0 64 28.7 64 64V416c0 35.3-28.7 64-64 64H64c-35.3 0-64-28.7-64-64V96zm64 48V368c0 26.5 21.5 48 48 48H336c26.5 0 48-21.5 48-48V144c0-26.5-21.5-48-48-48H256c-26.5 0-48 21.5-48 48v66.7c-18.6 6.6-32 24.4-32 45.3c0 26.5 21.5 48 48 48s48-21.5 48-48c0-20.9-13.4-38.7-32-45.3V144c0-8.8 7.2-16 16-16h80c8.8 0 16 7.2 16 16V368c0 8.8-7.2 16-16 16H112c-8.8 0-16-7.2-16-16V144c0-8.8 7.2-16 16-16h32c8.8 0 16-7.2 16-16s-7.2-16-16-16H112c-26.5 0-48 21.5-48 48z"/></svg>
